X: 10008
T: BETSY'S JIG
C: Bob McQuillen 21 Oct 93
B: Bob's Note Book 10 #8
%R: jig
Z: 2021 John Chambers <jc:trillian.mit.edu>
M: 6/8
L: 1/8
K: D
A \
| FGA B2d | cBc d2A | GAB AFA | dAF E2D |\
| FGA Bed | cBc dAF | GAB Agf | edc d2 :|
|: e \
| fga agf | ede f2d | BdB BAF | ABA Ade |\
| fga agf | ede f2d | edB AFA | Bdc d2 :|
%%begintext align
%% You've already met John Brennan
%% from Philly in these little books - now it is my pleasure to present
%% to you his sister Betsy, a delightful young woman who would
%% capture the heart of the Sphinx - she surely captured mine, anyway,
%% and this tune is proof of it - much love to you, Betsy - see you before
%% too long --
%%endtext

%%sep 1 1 500

%%sep 1 1 500

